icon-themes/breeze_svg/cmd/lc_texttocolumns.svg

<svg viewBox="0 0 24 24" xmlns="http://www.w3.org/2000/svg"><path d="m5 4v7h1v-6h8v3 1h4v10h-2v1h2 1v-10.59375-1.40625l-4-4h-1-8zm-1 8v1 3 1 3 1h1 10v-1-7-1h-10zm1 1h4v3h-4zm5 0h4v3h-4zm-5 4h4v3h-4zm5 0h4v3h-4z" fill="#4d4d4d"/><path d="m9.5 11-2.5-3h5.000001z" fill="#1d99f3"/></svg>

<svg viewBox="0 0 24 24" xmlns="http://www.w3.org/2000/svg">
  <path
     style="fill:#4d4d4d"
     d="m 5,4 v 7 H 6 V 5 h 8 v 3 1 h 4 v 10 h -2 v 1 h 2 1 V 9.40625 8 8 L 15,4 V 4 4 H 14 6 Z m -1,8 v 1 3 1 3 1 H 5 15 V 20 13 12 H 5 Z m 1,1 h 4 v 3 H 5 Z m 5,0 h 4 v 3 h -4 z m -5,4 h 4 v 3 H 5 Z m 5,0 h 4 v 3 h -4 z"
     />
  <path
     style="fill:#1d99f3"
     d="M 9.5,11 7,8 h 5.000001 z"
     />
</svg>
